X: 16793
T: Harrin Jenkka
R: polka
M: 2/4
K: Cmajor
|:"Am" {/e} aa ee|A/B/c/B/ AA|A/B/c/d/ ec/d/|"E" cB B2|
"Dm" {/e} ff dd|B/c/d/c/ BA|"E" ^G/A/B/c/ d^c/d/|"Am" fe "E"e2|
"Am" {/e} aa ee|A/B/c/B/ AA|A/B/c/d/ ed/e/|"Dm" fd d2|
f/e/d/e/ fd|"Am" e/d/c/d/ ec|"E" B^G/B/ e/d/c/B/|"Am" Ac A2:|
|:"G" GB/d/ gg/f/|"C" e/d/c/d/ ee|"E" E^G/B/ dd|"Am" c/B/A/B/ cA|
"Dm" f/e/d/e/ fd|"Am" e/d/c/d/ ec|"E" B^G/B/ e/d/c/B/|1 "Am" Ac A2:|2 "Am" A a a2||

